cards-playing-spade-multiple.svg

<svg fill="currentColor" viewBox="0 0 24 24"><path d="M3 4v18c0 1.1.9 2 2 2h12v-2H5V4zm16-4H9C7.9 0 7 .9 7 2v16c0 1.1.9 2 2 2h10c1.1 0 2-.9 2-2V2c0-1.1-.9-2-2-2m-3.2 13q-.6 0-1.2-.3l.9 2.3h-3l.9-2.3q-.6.3-1.2.3C11 13 10 12 10 10.8c0-1.5 1.4-2.7 3.4-4.6l.6-.5.6.5c2 1.9 3.4 3.1 3.4 4.6 0 1.3-1 2.2-2.2 2.2"/></svg>

<svg  viewBox="0 0 24 24" fill="currentColor"><path  d="M3 4V22C3 23.1 3.9 24 5 24H17V22H5V4H3M19 0H9C7.9 0 7 .9 7 2V18C7 19.1 7.9 20 9 20H19C20.1 20 21 19.1 21 18V2C21 .9 20.1 0 19 0M15.8 13C15.4 13 15 12.9 14.6 12.7L15.5 15H12.5L13.4 12.7C13 12.9 12.6 13 12.2 13C11 13 10 12 10 10.8C10 9.3 11.4 8.1 13.4 6.2L14 5.7L14.6 6.2C16.6 8.1 18 9.3 18 10.8C18 12.1 17 13 15.8 13Z"/></svg>
